src/images/icon-char-6.v3.svg

<svg width="42" height="48" viewBox="0 0 42 48" fill="none" xmlns="http://www.w3.org/2000/svg">
<g clip-path="url(#clip0)">
<path fill-rule="evenodd" clip-rule="evenodd" d="M16.9648 6.1294C14.3295 6.62352 12.5178 7.44705 10.3766 8.59999C8.89426 9.42352 7.74131 10.4118 6.58837 11.5647C6.42367 11.7294 6.25896 11.8941 5.92955 12.0588C5.43543 12.5529 5.43543 12.5529 4.94131 13.2118C4.77661 13.3765 4.6119 13.7059 4.4472 13.8706C1.97661 16.8353 0.32955 21.2823 0.000138029 25.2353C-0.329274 30.6706 1.48249 35.6118 3.95308 39.0706C5.27073 40.7176 6.91779 42.5294 8.56484 43.6824C10.2119 44.8353 12.1884 45.9882 14.4943 46.8118C19.7648 48.2941 24.8707 47.9647 29.6472 45.8235C31.1295 45.1647 32.4472 44.3412 33.7648 43.3529C37.7178 40.3882 40.6825 35.6118 41.506 30.8353C42.1648 28.0353 42.1648 25.4 41.506 22.6C40.6825 18.6471 39.0354 15.6823 36.7295 12.8823C36.0707 12.2235 36.0707 12.2235 35.5766 11.7294C35.4119 11.5647 35.4119 11.4 35.2472 11.4L34.4237 10.5765C34.0943 10.4118 33.7648 10.4118 33.6001 10.7412C33.4354 11.2353 34.0943 11.5647 34.5884 12.0588C34.9178 12.3882 35.2472 12.7176 35.7413 13.2118C35.906 13.3765 36.0707 13.5412 36.2354 13.7059C37.7178 15.6823 38.8707 17.4941 39.859 20.1294C42.0001 26.0588 41.0119 33.1412 37.5531 38.0823C36.0707 40.0588 35.0825 41.0471 33.106 42.6941C28.4943 46.4823 21.7413 47.8 15.4825 45.9882C6.09426 43.5176 0.000138026 34.1294 0.988373 24.5765C1.31779 21.9412 1.97661 19.8 3.12955 17.6588C3.95308 16.0118 4.6119 15.1882 5.60014 13.8706C6.42367 12.8823 8.23543 11.2353 9.38837 10.4118C10.2119 9.75293 11.0354 9.25882 12.1884 8.7647C14.0001 7.77646 15.3178 7.44705 17.2943 7.11764C17.9531 6.95293 17.9531 5.9647 16.9648 6.1294Z" fill="#999999"/>
<path fill-rule="evenodd" clip-rule="evenodd" d="M25.0357 0.199951H24.8709C24.7062 0.694069 21.4121 9.58819 21.2474 9.9176C20.5886 11.8941 19.9298 13.2117 20.918 15.3529C22.7298 18.647 27.6709 18.647 29.318 15.1882C30.3062 13.047 29.6474 11.5647 28.8239 9.9176C27.8357 7.1176 26.518 4.15289 25.5298 1.35289C25.3651 1.02348 25.2004 0.364657 25.0357 0.199951V0.199951ZM25.0357 2.83525C24.8709 3.32936 22.4004 9.9176 22.0709 10.5764C21.5768 12.0588 20.918 13.2117 21.9062 14.8588C23.3886 17.4941 27.1768 17.3294 28.4945 14.6941C29.1533 13.047 28.6592 11.8941 28.0004 10.4117L25.0357 2.83525Z" fill="#003067"/>
<path fill-rule="evenodd" clip-rule="evenodd" d="M13.8356 31.6588C15.1533 31.6588 16.1415 31.8235 17.1298 31.1647C17.9533 30.8353 18.4474 30.1764 18.6121 29.0235C18.9415 26.8823 17.4592 25.0706 15.4827 25.0706H11.8592V35.447H13.8356V31.8235C13.8356 31.4941 13.8356 31.8235 13.8356 31.6588ZM19.2709 33.4706C19.9298 33.6353 23.3886 33.6353 24.3768 33.6353V35.447H26.3533V33.6353H27.5062V31.9882H26.3533V25.0706H24.5415C24.3768 25.4 23.3886 26.7176 23.0592 27.2117L19.6003 32.1529C19.2709 32.8117 19.2709 32.647 19.2709 33.4706ZM30.3062 26.8823C30.3062 26.8823 30.3062 26.8823 30.3062 27.047V35.447H32.4474V25.0706H28.8239V26.8823H30.3062ZM7.41211 35.447H9.38858V25.0706H7.41211V35.447ZM13.8356 29.847C14.3298 30.0117 15.318 30.0117 15.8121 29.6823C16.8003 29.1882 16.8003 27.5411 15.8121 27.047C15.318 26.8823 14.3298 26.7176 13.8356 26.8823V29.847ZM21.7415 31.9882H24.3768C24.3768 31.1647 24.5415 28.5294 24.3768 28.0353C24.2121 28.3647 23.8827 28.6941 23.718 29.0235L21.7415 31.9882Z" fill="#003067"/>
</g>
<defs>
<clipPath id="clip0">
<rect width="42" height="48" fill="white"/>
</clipPath>
</defs>
</svg>

<svg xmlns="http://www.w3.org/2000/svg" width="42" height="48" fill="none" viewBox="0 0 42 48">
	<g fill-rule="evenodd" clip-path="url(#icon-char-6.v3-a)" clip-rule="evenodd">
		<path fill="#999" d="M16.965 6.13c-2.636.494-4.447 1.317-6.588 2.47-1.483.824-2.636 1.812-3.789 2.965-.164.164-.329.33-.658.494-.495.494-.495.494-.989 1.153-.164.165-.33.494-.494.659C1.977 16.835.33 21.282 0 25.235c-.33 5.436 1.482 10.377 3.953 13.836 1.318 1.647 2.965 3.458 4.612 4.611 1.647 1.153 3.623 2.306 5.93 3.13 5.27 1.482 10.376 1.153 15.152-.988 1.483-.66 2.8-1.483 4.118-2.471 3.953-2.965 6.917-7.741 7.741-12.518.659-2.8.659-5.435 0-8.235-.824-3.953-2.47-6.918-4.776-9.718l-1.153-1.153c-.165-.164-.165-.329-.33-.329l-.823-.824c-.33-.164-.66-.164-.824.165-.165.494.494.824.988 1.318l1.153 1.153.494.494c1.483 1.976 2.636 3.788 3.624 6.423 2.141 5.93 1.153 13.012-2.306 17.953-1.482 1.977-2.47 2.965-4.447 4.612-4.612 3.788-11.365 5.106-17.623 3.294C6.094 43.518 0 34.13.988 24.576c.33-2.635.989-4.776 2.142-6.917.823-1.647 1.482-2.47 2.47-3.788.824-.989 2.635-2.636 3.788-3.46.824-.658 1.647-1.152 2.8-1.646 1.812-.989 3.13-1.318 5.106-1.647.66-.165.66-1.153-.33-.989z"/>
		<path fill="#003067" d="M25.036.2h-.165c-.165.494-3.459 9.388-3.624 9.718-.658 1.976-1.317 3.294-.329 5.435 1.812 3.294 6.753 3.294 8.4-.165.988-2.141.33-3.623-.494-5.27-.988-2.8-2.306-5.765-3.294-8.565-.165-.33-.33-.988-.494-1.153zm0 2.635c-.165.494-2.636 7.083-2.965 7.741-.494 1.483-1.153 2.636-.165 4.283 1.483 2.635 5.27 2.47 6.588-.165.66-1.647.165-2.8-.494-4.282l-2.964-7.577zM13.836 31.659c1.317 0 2.306.165 3.294-.494.823-.33 1.317-.989 1.482-2.142.33-2.14-1.153-3.952-3.13-3.952H11.86v10.376h1.977V31.659zm5.435 1.812c.659.164 4.118.164 5.106.164v1.812h1.976v-1.812h1.153v-1.647h-1.153v-6.917h-1.812c-.164.329-1.152 1.647-1.482 2.14L19.6 32.154c-.33.659-.33.494-.33 1.318zm11.035-6.589v8.565h2.141V25.071h-3.623v1.811h1.482zM7.412 35.447H9.39V25.071H7.412v10.376zm6.424-5.6c.494.165 1.482.165 1.976-.165.988-.494.988-2.14 0-2.635-.494-.165-1.482-.33-1.976-.165v2.965zm7.905 2.141h2.636c0-.823.165-3.459 0-3.953-.165.33-.494.66-.659.988l-1.977 2.965z"/>
	</g>
	<defs>
		<clipPath id="icon-char-6.v3-a">
			<path fill="#fff" d="M0 0h42v48H0z"/>
		</clipPath>
	</defs>
</svg>
